X:235
T:Cracker Jack
C:AUBREY HAYNIE
N:TablEdited by Mike Stangeland
L:1/8
Q:1/4=289
M:4/4
K:G
z8 | "G"DG BG BG DA | "Am"cA DG BG DF | "D7"DF AF AF DG | "G"BG DE GE DG | "Bm"DG BG "Bbm"BG DA | 
"Am"cA DG BG DG | "D7"DF AF AF DF | "G"GD D2 G,4 | "G"DG Bd BG DA | "Am"ce DG Bd DF | 
"D7"DF Ac AF DG | "G"Bd DE GB DG | "Bm"DG BA "Bbm"BG DA | "Am"ce DG Bd BG | "D7"DF Ac AF DF | 
"G"GG3 G2 G,^A, |: "Cm"C^D Gc ^dc Gc | d^A GA cG D=F | "Gm"G^A dg ^ag dg | a=f df gd ^A^A, | 
"Cm"C^D Gc ^dD G^A | d^A GA cG ^D2 | cG c2 "A7"^c^G c2 |1 d"A7"d dd "D7"d2 G,^A, :|2 d"D7"d dd d2 G^G | 
G2 =F2 ^D2 =D2 | z8 | 
 

